X:105
T:Salt Creek
Q:1/4=160
M:4/4
K:C
L:1/8
E2 |: "G" G2 GG G2 GG | AGAB "C" c4 | "F" AG F2 AG F2 | AG F2 "D" D2 (E2 |
"G" G2) GG G2 GG | AGAB "C" c3 ue | "F" vfgfe "Dm" dcBc | "D" dc A2 "G" G2 z2 :|
|: "G" [g2d2G2] [gdG][gd] [g2d2G2] [gdG]e | beae gede | "F" fgfe "Dm" defe | "F" fgfe "Dm" dc B2 |
"G" [g2d2G2] [gdG][gd] [g2d2G2] [gdG]e | beae gede | "F" fgfe "Dm" dcBc | "D" dc A2 "G" G4 :|

